icons/24x24_idea_outline.svg

<svg xmlns="http://www.w3.org/2000/svg" width="24" height="24" viewBox="0 0 24 24">
  <path d="M9.00145191,15.1985307 L10,15.7761596 L10,18 C10,19.1045695 10.8954305,20 12,20 C13.1045695,20 14,19.1045695 14,18 L14,15.7761596 L14.9985481,15.1985307 C16.8422526,14.1320053 18,12.1679284 18,10 C18,6.6862915 15.3137085,4 12,4 C8.6862915,4 6,6.6862915 6,10 C6,12.1679284 7.15774745,14.1320053 9.00145191,15.1985307 Z M4,10 C4,5.581722 7.581722,2 12,2 C16.418278,2 20,5.581722 20,10 C20,12.9611294 18.3912055,15.5465048 16,16.9297424 L16,18 C16,20.209139 14.209139,22 12,22 C9.790861,22 8,20.209139 8,18 L8,16.9297424 C5.60879452,15.5465048 4,12.9611294 4,10 Z M12,6 C12.5522847,6 13,6.44771525 13,7 C13,7.55228475 12.5522847,8 12,8 C10.8954305,8 10,8.8954305 10,10 C10,10.5522847 9.55228475,11 9,11 C8.44771525,11 8,10.5522847 8,10 C8,7.790861 9.790861,6 12,6 Z M9,18 L15,18 L15,20 L9,20 L9,18 Z"/>
</svg>

<svg width="24" height="24" fill="none" xmlns="http://www.w3.org/2000/svg"><path d="m9.001 15.198.999.578V18a2 2 0 1 0 4 0v-2.224l.998-.578a6 6 0 1 0-5.997 0ZM4 10a8 8 0 1 1 12 6.93V18a4 4 0 0 1-8 0v-1.07A7.997 7.997 0 0 1 4 10Zm8-4a1 1 0 1 1 0 2 2 2 0 0 0-2 2 1 1 0 1 1-2 0 4 4 0 0 1 4-4ZM9 18h6v2H9v-2Z" fill="#000"/></svg>
